X:1
T:Champerret, 87.87 D
T:Champerret, 87.87 D
T:Ernest Harry Smith, before 1903
T:Public Domain Courtesy of the Cyber Hymnal™
C:Ernest Harry Smith, before 1903
Z:Public Domain
Z:Courtesy of the Cyber Hymnal™
%%score ( 1 2 ) ( 3 4 )
L:1/8
Q:1/4=110
M:4/4
K:A
V:1 treble 
V:2 treble 
V:3 bass 
V:4 bass 
V:1
 E2 | [EA]2 E2 [EB]2 E2 | [Ec]3 [Fd] [Ec]2 [FB]2 | [EA]3 [DG] [CA]2 [Ec]2 | [EB]6 E2 | %5
 [EA]2 E2 [EB]2 E2 | [Ec]3 [Ed] [Ee]2 [Ec]2 | [EB]3 [EA] [EG]2 [^DF]2 | E6 E2 | %9
 [DF]2 [DE]2 [DG]2 [DE]2 | [DF]2 [DE]2 [CA]2 [EB]2 | [Ec]2 [EA]2 [Ee]2 c2 | [EG]6 [Gc]2 | %13
 [Ad]3 [Gc] [FB]2 [FA]2 | [^Ec]3 [CB] [CA]2 [DF]2 | [DE]3 [DE] [DF]2 [DE]2 | [CA]6 |] %17
V:2
 E2 | x2 E2 E2 x2 | x8 | x8 | x6 E2 | x2 E2 E2 x2 | x8 | x8 | E6 E2 | x8 | x8 | x6 (EF) | x8 | x8 | %14
 x8 | x8 | x6 |] %17
V:3
 [A,C]2 | [A,C]2 [A,C]2 [A,D]2 [G,D]2 | [A,C]3 [A,B,] [A,E]2 [D,D]2 | %3
 [E,C]3 [E,B,] [F,A,]2 [C,A,]2 | [E,G,]6 [D,G,]2 | [C,A,]2 [C,A,]2 [B,,A,]2 [B,,A,]2 | %6
 [A,,A,]3 [B,,A,] [C,A,]2 [A,,A,]2 | [B,,G,]3 [B,,C] [B,,B,]2 [B,,A,]2 | [E,G,]6 [E,G,]2 | %9
 [E,A,]2 [E,G,]2 [E,B,]2 [E,G,]2 | [D,A,]2 [E,G,]2 [A,,A,]2 [E,G,]2 | A,2 [A,C]2 [G,B,]2 [A,E]2 | %12
 [E,E]6 [E,E]2 | [F,D]3 [E,E] [D,D]2 [F,C]2 | [C,C]3 [^E,G,] [F,A,]2 [D,A,]2 | %15
 [E,G,]3 [E,B,] [E,A,]2 [E,G,]2 | [A,,A,]6 |] %17
V:4
 x2 | x8 | x8 | x8 | x8 | x8 | x8 | x8 | x8 | x8 | x8 | A,2 x6 | x8 | x8 | x8 | x8 | x6 |] %17

